svg/domestic_worker_positive.svg

<?xml version="1.0" encoding="UTF-8" standalone="no"?>
<!-- Created with Inkscape (http://www.inkscape.org/) -->
<svg id="svg8" xmlns:rdf="http://www.w3.org/1999/02/22-rdf-syntax-ns#" xmlns="http://www.w3.org/2000/svg" xmlns:osb="http://www.openswatchbook.org/uri/2009/osb" height="48" width="48" version="1.1" xmlns:cc="http://creativecommons.org/ns#" viewBox="0 0 12.7 12.7" xmlns:dc="http://purl.org/dc/elements/1.1/">
 <title id="title4753">UIO-icon</title>
 <metadata id="metadata5">
  <rdf:RDF>
   <cc:Work rdf:about="">
    <dc:format>image/svg+xml</dc:format>
    <dc:type rdf:resource="http://purl.org/dc/dcmitype/StillImage"/>
    <dc:title>UIO-icon</dc:title>
    <dc:creator>
     <cc:Agent>
      <dc:title>Joaquín Urbano</dc:title>
     </cc:Agent>
    </dc:creator>
    <dc:rights>
     <cc:Agent>
      <dc:title>GPL</dc:title>
     </cc:Agent>
    </dc:rights>
   </cc:Work>
  </rdf:RDF>
 </metadata>
 <g id="layer1" transform="translate(0,-284.3)">
  <path id="path1933" d="m23.654 6.6426c-9.8042 0.0077102-10.529 9.5719-9.4238 18.816 0.56143 3.1984 3.7019 1.0645 5.7324 1.4141 1.456 0.9389 2.4559 1.5505 3.9668 1.5977 1.0258 0.003078 2.2896-0.75555 3.6602-1.623 2.0304-0.18213 4.9773 1.7002 5.5195-1.3887 1.4651-9.589 0.41757-18.796-9.4238-18.816-0.01046 0-0.019986-0.000080126-0.03125 0zm1.25 5.0449c5.2217 4.0188 6.6866 7.7562 4.0234 13.564-0.17086 0.16658-0.35239 0.32145-0.55664 0.44922-1.528 1.028-3.294 2.248-4.433 2.244-1.664-0.047-2.642-0.745-4.532-1.935-1.335-0.841-1.912-3.164-1.916-5.049l-0.007813-4.3438-0.12305 0.048828 0.001953-0.054688c2.9124-0.1054 5.2106-2.5813 7.543-4.9238zm3.2598 4.1406c0.076684 0.022924 0.1471 0.050357 0.22266 0.074219l-0.186-0.075zm-7.2422 1.3867c-0.43898 0.00011339-0.79483 0.35604-0.79492 0.79492 0.00009109 0.43895 0.35596 0.79481 0.79492 0.79492 0.43898-0.00011339 0.79482-0.35601 0.79492-0.79492-0.00009903-0.43899-0.35596-0.79481-0.79492-0.79492zm5.9688 0c-0.43898 0.00011339-0.79483 0.35604-0.79492 0.79492 0.00009109 0.43895 0.35592 0.79481 0.79492 0.79492 0.43899-0.00011339 0.79482-0.35601 0.79492-0.79492-0.00009865-0.43899-0.35592-0.79481-0.79492-0.79492zm-3.0352 3.6699c-0.37814 0.00378-0.67004 0.070579-0.66602 0.14844 0.002 0.080882 0.3224 0.14686 0.7168 0.14648 0.39441 0.0000378 0.71477-0.065602 0.7168-0.14648 0.003-0.082016-0.31865-0.14844-0.7168-0.14844-0.017008-0.00011318-0.033996-0.00011318-0.050781 0zm0.035156 2.5488c-1.4518 0.003704-2.5734 0.048271-2.5605 0.10156 0.01852 0.055181 1.2473 0.099609 2.7559 0.099609 1.5078 0 2.7352-0.044806 2.7539-0.099609 0.009789-0.055937-1.226-0.10156-2.7539-0.10156-0.06508-0.00007559-0.13027-0.00007559-0.19531 0zm6.8516 5.2754c-1.5652 1.4702-4.7177 2.8115-6.8027 2.8438-2.5629-0.002872-5.0208-1.0188-6.8379-2.8262l-0.10938 0.029297c-0.87529 0.31559-1.7272 0.6743-2.582 1.0449v5.8496h18.736v-5.9824c-0.79453-0.34091-1.5874-0.66902-2.4043-0.95898zm5.0566 2.1094v12.023h5.918v-6.662c0-1.1525 0.00016284-3.2682-2.5449-4.0195-1.2109-0.42077-2.3081-0.88043-3.373-1.3418zm-24.042 0.13c-0.972 0.417-1.9728 0.83-3.0685 1.211-2.5451 0.75-2.545 2.867-2.545 4.02v6.6621h5.6133v-11.893z" transform="matrix(.26458 0 0 .26458 0 284.3)" fill="#333"/>
 </g>
</svg>

<svg width="48" height="48" viewBox="0 0 48 48" fill="none" xmlns="http://www.w3.org/2000/svg">
<path d="M23.6538 6.64258C13.8497 6.65029 13.1249 16.2144 14.2301 25.4583C14.7915 28.6567 17.932 26.5228 19.9624 26.8724C21.4184 27.8113 22.4183 28.4229 23.9292 28.4701C24.955 28.4732 26.2188 27.7146 27.5893 26.8471C29.6197 26.665 32.5666 28.5473 33.1088 25.4584C34.5739 15.8696 33.5263 6.66268 23.6851 6.64268C23.6746 6.64268 23.6651 6.6426 23.6538 6.64268V6.64258ZM24.9038 11.6874C30.1254 15.7062 31.5903 19.4435 28.9271 25.2512C28.7563 25.4178 28.5747 25.5727 28.3705 25.7005C26.8425 26.7284 25.0765 27.9484 23.9375 27.9444C22.2736 27.8974 21.2956 27.1994 19.4056 26.0095C18.0706 25.1685 17.4936 22.8455 17.4896 20.9605L17.4818 16.6168L17.3588 16.6656L17.3607 16.6109C20.2731 16.5055 22.5713 14.0296 24.9036 11.6872L24.9038 11.6874ZM28.1635 15.828C28.2402 15.8509 28.3106 15.8783 28.3862 15.9022L28.2002 15.8272L28.1635 15.828ZM20.9214 17.2146C20.4825 17.2148 20.1266 17.5707 20.1265 18.0096C20.1266 18.4485 20.4825 18.8044 20.9214 18.8045C21.3604 18.8044 21.7162 18.4485 21.7163 18.0096C21.7162 17.5706 21.3604 17.2148 20.9214 17.2146ZM26.8902 17.2146C26.4512 17.2148 26.0953 17.5707 26.0952 18.0096C26.0953 18.4485 26.4512 18.8044 26.8902 18.8045C27.3291 18.8044 27.685 18.4485 27.6851 18.0096C27.685 17.5706 27.3291 17.2148 26.8902 17.2146ZM23.855 20.8845C23.4769 20.8883 23.185 20.9551 23.189 21.0329C23.191 21.1138 23.5114 21.1798 23.9058 21.1794C24.3002 21.1795 24.6205 21.1138 24.6226 21.0329C24.6256 20.9509 24.3039 20.8845 23.9058 20.8845C23.8888 20.8844 23.8718 20.8844 23.855 20.8845ZM23.8901 23.4333C22.4384 23.437 21.3168 23.4815 21.3297 23.5348C21.3482 23.59 22.577 23.6344 24.0855 23.6344C25.5933 23.6344 26.8207 23.5896 26.8394 23.5348C26.8492 23.4789 25.6134 23.4333 24.0855 23.4333C24.0205 23.4332 23.9553 23.4332 23.8902 23.4333H23.8901ZM30.7417 28.7086C29.1765 30.1788 26.024 31.5201 23.939 31.5524C21.3762 31.5495 18.9183 30.5336 17.1012 28.7262L16.9919 28.7555C16.1166 29.0711 15.2647 29.4298 14.4099 29.8004V35.6499H33.1456V29.6676C32.3511 29.3267 31.5583 28.9986 30.7414 28.7086H30.7417ZM35.7982 30.818V42.8408H41.7161V36.1789C41.7161 35.0264 41.7163 32.9107 39.1713 32.1595C37.9604 31.7387 36.8632 31.279 35.7983 30.8177L35.7982 30.818ZM11.7565 30.948C10.7845 31.365 9.78372 31.778 8.68803 32.159C6.14297 32.9089 6.14307 35.0259 6.14307 36.1789V42.8409H11.7563V30.9481L11.7565 30.948Z" fill="#333333"/>
</svg>
